app/dist/common/images/grounds-r-est.svg

<svg height="18" viewBox="0 0 18 18" width="18" xmlns="http://www.w3.org/2000/svg"><path d="m0 0h18v18h-18z" fill="#f0f3fa"/><path d="m6 13v-7h-1v-1h3v1h-1v7zm7-4v4h-.78l-.21-.65c-.4.44-.81.65-1.31.65-1.32 0-1.7-1.05-1.7-2.03v-4.1c0-1.25.66-1.87 1.97-1.87 1.35 0 2.03.68 2.03 2.03 0 .16 0 .31-.03.61h-.97c.03-.24 0-.36 0-.52 0-.87-.53-1.1-1.03-1.1-.45 0-.97.17-.97.84v4.11c0 .38.34 1.03.95 1.03.62 0 1.05-.57 1.05-1.03v-.97h-1v-1z" fill="#216361"/></svg>

<!-- by TradingView --><svg width="18" height="18" viewBox="0 0 18 18" xmlns="http://www.w3.org/2000/svg"><path fill="#F0F3FA" d="M0 0h18v18H0z"/><path d="M6 13V6H5V5h3v1H7v7H6ZM13 9v4h-.78l-.21-.65c-.4.44-.81.65-1.31.65C9.38 13 9 11.95 9 10.97v-4.1C9 5.62 9.66 5 10.97 5 12.32 5 13 5.68 13 7.03c0 .16 0 .31-.03.61H12c.03-.24 0-.36 0-.52 0-.87-.53-1.1-1.03-1.1-.45 0-.97.17-.97.84v4.11c0 .38.34 1.03.95 1.03.62 0 1.05-.57 1.05-1.03V10h-1V9h2Z" fill="#216361"/></svg>
